build/img/sass.svg

<svg width="64" height="64" viewBox="0 0 32 32" fill="none" xmlns="http://www.w3.org/2000/svg">
<path d="M26.11 17.572C25.2307 17.5731 24.3632 17.7742 23.573 18.16C23.3256 17.7494 23.1346 17.3075 23.005 16.846C22.9306 16.4842 22.9134 16.1131 22.954 15.746C23.0395 15.3421 23.1504 14.9439 23.286 14.554C23.281 14.503 23.225 14.262 22.662 14.254C22.099 14.246 21.614 14.361 21.562 14.51C21.4642 14.7821 21.3857 15.0608 21.327 15.344C20.861 16.4935 20.2875 17.5964 19.614 18.638C19.2367 18.0194 19.0815 17.2906 19.174 16.572C19.2595 16.1681 19.3704 15.7699 19.506 15.38C19.501 15.329 19.445 15.088 18.882 15.08C18.319 15.072 17.834 15.187 17.782 15.336C17.73 15.485 17.664 15.836 17.547 16.17C17.43 16.504 16.064 19.556 15.706 20.343C15.522 20.743 15.363 21.069 15.251 21.289C15.2457 21.3033 15.239 21.317 15.231 21.33L15.078 21.622V21.627C15.001 21.765 14.919 21.893 14.878 21.893C14.8065 21.6073 14.8099 21.308 14.888 21.024C15.088 19.965 15.578 18.319 15.573 18.262C15.573 18.231 15.665 17.945 15.256 17.797C15.1611 17.7518 15.0546 17.7372 14.9511 17.7551C14.8476 17.773 14.7522 17.8226 14.678 17.897C14.642 17.897 14.617 17.984 14.617 17.984C14.617 17.984 15.062 16.133 13.768 16.133C13.2641 16.2343 12.7855 16.4355 12.3605 16.7245C11.9355 17.0135 11.5725 17.3846 11.293 17.816C10.945 18.005 10.204 18.409 9.411 18.844C9.111 19.013 8.797 19.182 8.506 19.344C8.486 19.324 8.465 19.298 8.445 19.278C6.87 17.6 3.975 16.416 4.1 14.171C4.146 13.353 4.427 11.205 9.659 8.59598C13.965 6.47398 17.392 7.06198 17.985 8.36598C18.834 10.228 16.149 13.685 11.7 14.186C11.2078 14.2858 10.6995 14.2738 10.2126 14.1507C9.72565 14.0277 9.27263 13.7967 8.887 13.475C8.652 13.219 8.616 13.204 8.529 13.255C8.386 13.332 8.478 13.562 8.529 13.695C8.69872 14.0021 8.92829 14.2721 9.20413 14.4891C9.47997 14.706 9.79649 14.8654 10.135 14.958C11.8852 15.3362 13.71 15.1554 15.352 14.441C18.052 13.398 20.152 10.498 19.536 8.06898C18.917 5.60398 14.826 4.79098 10.954 6.16898C8.52875 6.98506 6.28783 8.27048 4.359 9.95198C2.226 11.947 1.889 13.68 2.027 14.407C2.527 16.985 6.078 18.662 7.499 19.907C7.4348 19.9435 7.37012 19.9792 7.305 20.014C6.594 20.367 3.884 21.784 3.205 23.282C2.438 24.982 3.328 26.197 3.916 26.361C4.802 26.5731 5.73212 26.5032 6.57651 26.1612C7.42089 25.8191 8.1374 25.2219 8.626 24.453C9.04206 23.8152 9.29781 23.0863 9.37146 22.3284C9.44511 21.5704 9.33448 20.8059 9.049 20.1C9.04418 20.0886 9.03741 20.0781 9.029 20.069L9.586 19.742C9.92445 19.5419 10.2672 19.3492 10.614 19.164C10.4058 19.7644 10.2836 20.3913 10.251 21.026C10.1803 21.9988 10.478 22.9625 11.085 23.726C11.1774 23.8055 11.2846 23.8659 11.4004 23.9036C11.5163 23.9414 11.6385 23.9558 11.76 23.946C12.36 23.946 12.635 23.446 12.936 22.852C13.304 22.126 13.636 21.282 13.636 21.282C13.636 21.282 13.222 23.563 14.347 23.563C14.756 23.563 15.17 23.031 15.355 22.763V22.768L15.386 22.717L15.452 22.61V22.6C15.616 22.314 15.984 21.664 16.531 20.585C17.237 19.194 17.917 17.455 17.917 17.455C17.9826 17.8372 18.0731 18.2146 18.188 18.585C18.3527 19.0339 18.5475 19.4712 18.771 19.894C18.607 20.124 18.505 20.252 18.505 20.252L18.51 20.257C18.377 20.431 18.234 20.62 18.075 20.804C17.6019 21.3241 17.163 21.8742 16.761 22.451C16.7013 22.5479 16.6807 22.6639 16.7036 22.7754C16.7264 22.8869 16.791 22.9854 16.884 23.051C17.0945 23.1605 17.3345 23.2001 17.569 23.164C17.9224 23.144 18.27 23.0646 18.597 22.929C18.913 22.8178 19.2111 22.6611 19.482 22.464C19.7612 22.2705 19.986 22.0085 20.1347 21.7031C20.2834 21.3976 20.351 21.0591 20.331 20.72C20.2996 20.2928 20.1904 19.875 20.009 19.487C20.06 19.415 20.109 19.344 20.157 19.272C20.7255 18.4234 21.238 17.5385 21.691 16.623C21.7566 17.0052 21.8471 17.3826 21.962 17.753C22.0978 18.1409 22.2651 18.5172 22.462 18.878C21.8079 19.3812 21.2928 20.0426 20.965 20.8C20.643 21.731 20.893 22.15 21.365 22.247C21.6233 22.2648 21.8815 22.2119 22.112 22.094C22.4509 21.9826 22.7701 21.8186 23.058 21.608C23.3616 21.4288 23.6158 21.177 23.7979 20.8752C23.9799 20.5734 24.0841 20.2311 24.101 19.879C24.0783 19.5275 23.9989 19.1821 23.866 18.856C24.7291 18.5188 25.6649 18.4113 26.582 18.544C29.016 18.83 29.497 20.349 29.405 20.989C29.3619 21.2159 29.2706 21.4309 29.1375 21.6196C29.0043 21.8083 28.8323 21.9663 28.633 22.083C28.464 22.19 28.408 22.226 28.423 22.303C28.443 22.416 28.523 22.41 28.668 22.39C29.0348 22.276 29.3585 22.0534 29.5963 21.7517C29.8341 21.45 29.9748 21.0833 30 20.7C30.077 19.2 28.645 17.555 26.113 17.57L26.11 17.572ZM7.33 23.9C6.522 24.78 5.397 25.112 4.911 24.831C4.389 24.531 4.594 23.231 5.586 22.299C6.17445 21.7693 6.81047 21.2949 7.486 20.882C7.604 20.81 7.778 20.708 7.986 20.582L8.042 20.551L8.165 20.474C8.34222 21.0678 8.35829 21.698 8.21156 22.3001C8.06482 22.9021 7.76056 23.4543 7.33 23.9ZM13.211 19.9C12.93 20.585 12.342 22.34 11.984 22.242C11.677 22.16 11.484 20.83 11.923 19.516C12.1446 18.8834 12.4675 18.2911 12.879 17.762C13.319 17.271 13.805 17.107 13.922 17.307C13.8153 18.2019 13.5756 19.0758 13.211 19.9ZM18.064 22.222C17.946 22.283 17.834 22.322 17.783 22.294C17.747 22.274 17.834 22.194 17.834 22.194C17.834 22.194 18.443 21.539 18.683 21.243C18.821 21.069 18.983 20.865 19.159 20.634V20.7C19.159 21.482 18.402 22.009 18.065 22.224L18.064 22.222ZM21.808 21.368C21.721 21.307 21.736 21.102 22.028 20.463C22.231 20.0526 22.5147 19.6873 22.862 19.389C22.9152 19.5404 22.943 19.6995 22.944 19.86C22.9479 20.2015 22.8387 20.5348 22.6334 20.8077C22.4281 21.0807 22.1382 21.278 21.809 21.369L21.808 21.368Z" fill="#CD6799"/>
</svg>

<svg width="64" height="64" viewBox="0 0 32 32" fill="none" xmlns="http://www.w3.org/2000/svg"><path d="M26.11 17.572a5.799 5.799 0 00-2.537.588 5.347 5.347 0 01-.568-1.314 3.533 3.533 0 01-.051-1.1 9.82 9.82 0 01.332-1.192c-.005-.051-.061-.292-.624-.3-.563-.008-1.048.107-1.1.256-.098.272-.176.55-.235.834a19.69 19.69 0 01-1.713 3.294 3.187 3.187 0 01-.44-2.066 9.82 9.82 0 01.332-1.192c-.005-.051-.061-.292-.624-.3-.563-.008-1.048.107-1.1.256-.052.149-.118.5-.235.834-.117.334-1.483 3.386-1.841 4.173a27.434 27.434 0 01-.475.987l-.153.292v.005c-.077.138-.159.266-.2.266a1.71 1.71 0 01.01-.869c.2-1.059.69-2.705.685-2.762 0-.031.092-.317-.317-.465a.508.508 0 00-.578.1c-.036 0-.061.087-.061.087s.445-1.851-.849-1.851a3.854 3.854 0 00-2.475 1.683c-.348.189-1.089.593-1.882 1.028-.3.169-.614.338-.905.5-.02-.02-.041-.046-.061-.066C6.87 17.6 3.975 16.416 4.1 14.171c.046-.818.327-2.966 5.559-5.575 4.306-2.122 7.733-1.534 8.326-.23.849 1.862-1.836 5.319-6.285 5.82a3.351 3.351 0 01-2.813-.711c-.235-.256-.271-.271-.358-.22-.143.077-.051.307 0 .44a2.627 2.627 0 001.606 1.263 8.55 8.55 0 005.217-.517c2.7-1.043 4.8-3.943 4.184-6.372-.619-2.465-4.71-3.278-8.582-1.9a19.5 19.5 0 00-6.595 3.783c-2.133 1.995-2.47 3.728-2.332 4.455.5 2.578 4.051 4.255 5.472 5.5a8.465 8.465 0 01-.194.107c-.711.353-3.421 1.77-4.1 3.268-.767 1.7.123 2.915.711 3.079a4.374 4.374 0 004.71-1.908 4.725 4.725 0 00.423-4.353.107.107 0 00-.02-.031l.557-.327c.338-.2.681-.393 1.028-.578-.208.6-.33 1.227-.363 1.862a3.89 3.89 0 00.834 2.7.92.92 0 00.675.22c.6 0 .875-.5 1.176-1.094.368-.726.7-1.57.7-1.57s-.414 2.281.711 2.281c.409 0 .823-.532 1.008-.8v.005l.031-.051.066-.107v-.01c.164-.286.532-.936 1.079-2.015.706-1.391 1.386-3.13 1.386-3.13.066.382.156.76.271 1.13.165.449.36.886.583 1.309-.164.23-.266.358-.266.358l.005.005c-.133.174-.276.363-.435.547a16.27 16.27 0 00-1.314 1.647.447.447 0 00.123.6c.21.11.45.15.685.113.353-.02.701-.1 1.028-.235a3.45 3.45 0 00.885-.465 1.98 1.98 0 00.849-1.744 3.52 3.52 0 00-.322-1.233 23.426 23.426 0 001.682-2.864c.066.382.156.76.271 1.13.136.388.303.764.5 1.125a4.86 4.86 0 00-1.497 1.922c-.322.931-.072 1.35.4 1.447.258.018.517-.035.747-.153a3.38 3.38 0 00.946-.486 2.127 2.127 0 001.043-1.729 3.269 3.269 0 00-.235-1.023 5.356 5.356 0 012.716-.312c2.434.286 2.915 1.805 2.823 2.445a1.618 1.618 0 01-.772 1.094c-.169.107-.225.143-.21.22.02.113.1.107.245.087A1.9 1.9 0 0030 20.7c.077-1.5-1.355-3.145-3.887-3.13l-.003.002zM7.33 23.9c-.808.88-1.933 1.212-2.419.931-.522-.3-.317-1.6.675-2.532a12.881 12.881 0 011.9-1.417c.118-.072.292-.174.5-.3l.056-.031.123-.077A3.493 3.493 0 017.33 23.9zm5.881-4c-.281.685-.869 2.44-1.227 2.342-.307-.082-.5-1.412-.061-2.726a6.19 6.19 0 01.956-1.754c.44-.491.926-.655 1.043-.455a9.061 9.061 0 01-.711 2.593zm4.853 2.322c-.118.061-.23.1-.281.072-.036-.02.051-.1.051-.1s.609-.655.849-.951c.138-.174.3-.378.476-.609v.066c0 .782-.757 1.309-1.094 1.524l-.001-.002zm3.744-.854c-.087-.061-.072-.266.22-.905.203-.41.487-.776.834-1.074.053.151.081.31.082.471a1.547 1.547 0 01-1.135 1.509l-.001-.001z" fill="#CD6799"/></svg>
